svg/300/outlined/file_copy_off-fill.svg

<svg xmlns="http://www.w3.org/2000/svg" width="48" height="48" viewBox="0 -960 960 960"><path d="m819.999-227.925-589.228-591.92v-22.461q0-23.529 17.082-40.611 17.082-17.082 40.611-17.082h327.229l204.306 204.306v467.768ZM833.231-61.54 703.999-190.771H288.464q-23.529 0-40.611-17.082-17.082-17.082-17.082-40.611v-415.535L62.155-832.615 94.77-865.23 865.845-94.155 833.231-61.54Zm-240.23-614.692h194.69l-194.69-191.459 194.69 191.459-194.69-191.459v191.459ZM157.694-60.002q-23.529 0-40.611-17.081-17.082-17.082-17.082-40.611v-530.919h45.384v530.919q0 4.616 3.846 8.463 3.847 3.846 8.463 3.846h489.919v45.384H157.694Z"/></svg>

<svg xmlns="http://www.w3.org/2000/svg" width="48" height="48" viewBox="0 -960 960 960"><path d="M820-227.93 230.77-819.84v-22.47q0-23.53 17.08-40.61T288.46-900h327.23L820-695.69v467.76Zm13.23 166.39L704-190.77H288.46q-23.53 0-40.61-17.08t-17.08-40.61V-664L62.16-832.62l32.61-32.61L865.85-94.15l-32.62 32.61ZM593-676.23h194.69L593-867.69l194.69 191.46L593-867.69v191.46ZM157.69-60q-23.53 0-40.61-17.08T100-117.69v-530.92h45.39v530.92q0 4.61 3.84 8.46 3.85 3.84 8.46 3.84h489.92V-60H157.69Z"/></svg>
